X: 2
T: The Mason's Apron
R: reel
M: 4/4
L: 1/8
K: Gmaj
dBAB GAGE|DEGA BGGz|AcBG AGEG|Gz(3Bcd edge|dBAB GAGE|DEGA BGGz|c2cd edge|dBAB G2z2:|~G2dz egdG|~G2dg egdB|A2eg ~g2ec|c2eg gedz|~G2dz egdG|~G2dg egdB|BA(3Bcd edge|dBAB G2z2:|


Tune 74	Setting 24520

